!!!COM: Power, Leonel
!!!OTL: Quam pulchra es et quam decora
!!!ONM: No. 26
!!!YOR: from: "Complete Works" edited by Charles Hamm, Vol. 1, Motets, pp.??
!!!YOO: American Institute of Musicology
!!!YOY: 1969
**kern	**kern	**kern
*ICvox	*ICvox	*ICvox
! tenor	! contratenor	! discantus
*M3/4	*M3/4	*M3/4
=1	=1	=1
*>A	*>A	*>A
!! Section 'A'; (O) mensuration.
2.r	4G	4.G
.	8E	.
.	8C	8A
.	4D	4B
=2	=2	=2
2.r	4C	4c
.	4GG	8B
.	.	8G
.	8r	4A
.	8F	.
=3	=3	=3
2.r	8G	8.G
.	4E	.
.	.	16F
.	.	8G
.	8C	4A
.	4D	.
.	.	8B
=4	=4	=4
2.r	8E	8c
.	4F	8.d
.	.	16c
.	8E	4c
.	4D	.
.	.	8B
=5	=5	=5
2.r	2C	4c
.	.	4r
.	4G	4G
=6	=6	=6
2.r	4G	4d
.	2A	2c
=7	=7	=7
2.r	[2.G	[2.B
=8	=8	=8
2.r	2.G;]	2.B;]
=9	=9	=9
*>B1	*>B1	*>B1
!! Section 'B1'; (O) mensuration.
4GG	4G	2d
4BB-	8.F	.
.	16D	.
4AA	8E	4c
.	8F	.
=10	=10	=10
4GG	8G	8B-
.	8E	8.A
8FF	8D	.
.	.	16G
8GG	4D	4G
4AA	.	.
.	8C	8F#x
=11	=11	=11
8GG	8D	4G
4C	4r	.
.	.	8E
8BB	8G	8D
4AA	8A	8r
.	8F	8c
=12	=12	=12
4GG	4G	8d
.	.	8d
8r	4GG	4B
8G	.	.
8A	4D	4A
8F	.	.
=13	=13	=13
4G	4GG	4r
4r	4GG	4B
4E	4AA	4c
=14	=14	=14
8F	2.r	8d
4G	.	8.e
.	.	16d
8F	.	4d
4E	.	.
.	.	8c#x
=15	=15	=15
4D	8GG	4d
.	8BB-x	.
4E	8AA	8c
.	8GG	8B
4F	4FF	4A
=16	=16	=16
4D	2GG	2B
4G	.	.
4F	4D	8r
.	.	8A
=17	=17	=17
8E-	8C	8c
4D	4GG	8.B
.	.	16A
8C	8C	4A
4BB	4D	.
.	.	8G
=18	=18	=18
2AA	8E	4A
.	4F	.
.	.	8r
.	8G	8B
4r	8A	8c
.	8F	[8d
=19	=19	=19
8GG	4G	16d]
.	.	16B
8GG	.	8B
8AA	8F	8.c
8BB	8G	.
.	.	16B
4C	8E	4G
.	8r	.
=20	=20	=20
4D	8GG	2r
.	8GG	.
8C	8AA	.
8BB	8BB	.
4AA	4C	8r
.	.	8c
=21	=21	=21
4GG	4D	8B
.	.	8.A
8r	8C	.
.	.	16G
8GG	8BB	8G
4C	4AA	8r
.	.	8F#x
=22	=22	=22
8D	8GG	4G
8E	4C	.
4C	.	8A
.	8D	8B
4r	8E	4G
.	[8C	.
=23	=23	=23
2.r	8C]	8A
.	8D	8B
.	8E	4c
.	4F	.
.	.	4d
.	[8G	.
=24	=24	=24
2.r	4.G]	8e
.	.	8d
.	.	4B
.	4E	.
.	.	8c
.	8F	8A
=25	=25	=25
2.r	8E	8G
.	8C	4c
.	4D	.
.	.	8B
.	4C	8.c
.	.	16d
=26	=26	=26
2GG	2G	2B
4AA	4F	4r
=27	=27	=27
4BB	4G	2.r
2C	4.A	.
.	8G	.
=28	=28	=28
4BB	2G	2.r
2AA	.	.
.	4F#	.
=29	=29	=29
2.GG	4G	2.r
.	8E	.
.	8F	.
.	4D	.
=30	=30	=30
*>B2	*>B2	*>B2
!! Section 'B2'; (O) mensuration.
2G	4GG	2G
.	4BB-x	.
4F	4AA	4A
=31	=31	=31
4G	4GG	4B
4.A	2FF	4.c
8G	.	8B
=32	=32	=32
2G	4GG	4B
.	2D	4.A
4F#x	.	.
.	.	8G
=33	=33	=33
4G	4GG	4B
4r	8AA	8c
.	4BB-x	4d
8D	.	.
8E	8AA	8c
=34	=34	=34
4F	8.FF	8.A
.	16GG	16B
8E	4AA	8c
4D	.	8B
.	4r	4A
8C	.	.
=35	=35	=35
*M2/4	*M2/4	*M2/4
8D	2r	8B
8BB	.	8.G
4AA	.	.
.	.	16E
.	.	8F#x
=36	=36	=36
8GG	2r	4G
4C	.	.
.	.	8A
8D	.	[8B
=37	=37	=37
*M3/4	*M3/4	*M3/4
4E	2.r	8B]
.	.	8.c
4D	.	16B
.	.	8B
4C	.	8.A
.	.	16G
=38	=38	=38
2GG	2r	4B
.	.	4r
4r	4G	4B
=39	=39	=39
2.r	4.A	4.c
.	8G	8B
.	4E	4G
=40	=40	=40
*M2/4	*M2/4	*M2/4
4r	4F	4A
4C	4E	4G
=41	=41	=41
*M3/4	*M3/4	*M3/4
4.D	4r	2.r
.	8F	.
8C	8G	.
4AA	8A	.
.	[8A	.
=42	=42	=42
*M2/4	*M2/4	*M2/4
4BB	8A]	4r
.	8G	.
4AA	4A	8.E
.	.	16F
=43	=43	=43
*M3/4	*M3/4	*M3/4
8BB	2.r	4G
8C	.	.
8D	.	8F
4D	.	8D
.	.	4E
8C#x	.	.
=44	=44	=44
2D	2F	8D
.	.	8r
.	.	8A
.	.	8B
8E	8C	8c
8F	[8D	[8A
=45	=45	=45
*M2/4	*M2/4	*M2/4
4D	8D]	8A]
.	8BB	8d
4E	4C	8c
.	.	8B
=46	=46	=46
*M3/4	*M3/4	*M3/4
2BB	2GG	4d
.	.	4r
4BB	8F	4d
.	8G	.
=47	=47	=47
*M2/4	*M2/4	*M2/4
8AA	2A	2e
8BB	.	.
[4C	.	.
=48	=48	=48
*M3/4	*M3/4	*M3/4
8C]	4G	4.e
8BB	.	.
2GG	4G	.
.	.	8d
.	4D	4B
=49	=49	=49
8AA	8F	8c
8GG	8G	4d
4BB	4D	.
.	.	8c
4C	4E	8A
.	.	[8B-
=50	=50	=50
8D	8F	8B-]
8C	8E	8.A
8BB	8D	.
.	.	16G
8GG	4D	4G
4AA	.	.
.	8C	8F#x
=51	=51	=51
[2.GG	[2.D	[2.G
=52	=52	=52
2.GG]	2.D]	2.G]
!! end of section
*M6/8	*M6/8	*M6/8
=53	=53	=53
*>C	*>C	*>C
!! Section 'C'; (C.) mensuration.
4D	2.r	4D
8C	.	8E
8AA	.	8F
4GG	.	8.G
.	.	16F
=54	=54	=54
4D	2.r	4D
4C	.	8A
.	.	4A
4BB	.	.
.	.	8G
=55	=55	=55
4AA	4r	4A
8AA	8E	8A
8AA	8F	8c
4GG	4G	4B
=56	=56	=56
*>D	*>D	*>D
!! Section 'D'; (C.) mensuration.
2.D;	2.F;	8A
.	.	[4A
.	.	4.A;]
=57	=57	=57
4BB	8F	4.r
.	4A	.
8C	.	.
8GG	4G	4r
4AA	.	.
.	8F#x	8A
=58	=58	=58
4GG	4.G	8B
.	.	16c
.	.	8d
8GG	.	.
.	.	32c
.	.	32d
4E	4.r	8e
.	.	4d
[8G	.	.
=59	=59	=59
8G]	4r	4c
4F	.	.
.	8F	8B
4.E	8G	8c
.	4E	8r
.	.	8c
=60	=60	=60
4r	8D	8d
.	4BB	4d
8F	.	.
8G	4.GG	4B
4G	.	.
.	.	8r
=61	=61	=61
4E	4C	4G
8r	8C	8A
4D	4GG	8B
.	.	8A
[8F	8D	8d
=62	=62	=62
8F]	8GG	4d
4E	4AA	.
.	.	8c
4D	4GG	8d
.	.	8r
8BB	8GG	8d
=63	=63	=63
8GG	4.D	8B
8GG	.	8B
8GG	.	8B
4D	4.GG	4B
8D	.	[8G
=64	=64	=64
4.E	4.C	8G]
.	.	4c
4D	4GG	8B-
.	.	4A
8C	8AA	.
=65	=65	=65
8BB	4D	4G
4AA	.	.
.	8C	8F#x
8GG	8D	8G
4C	4AA	8r
.	.	8E
=66	=66	=66
8D	2.r	8F
4E	.	8.G
.	.	16F
4D	.	4F
8C	.	8E
=67	=67	=67
2.D;	2.BB-x;	4.G;
.	.	4.r
=68	=68	=68
*>E	*>E	*>E
!! Section 'E'; (C) mensuration.
!! Hamm transcribes as breve equals crotchet rather than minim from here;
!! corrected in the following encoding:
*M2/4	*M2/4	*M2/4
1C	1FF	2.A
.	.	[4B-x
=69	=69	=69
2D	2F	4B-x]
.	.	2A
4BB-x	4D	.
4C	4E	[4G
=70	=70	=70
4AA	4C	4G]
4FF	2C	4.F
2GG	.	.
.	.	8D
.	4BB-x	4E
=71	=71	=71
4FF	4C	2F
2BB-x	4D	.
.	4GG	4G
4C	4r	[4A
=72	=72	=72
2D	2GG	4A]
.	.	4.B-x
4GG	4D	.
.	.	8G
4BB-x	4D	[4G
=73	=73	=73
2AA	4D	8G]
.	.	8E
.	4C	4F#x
2GG	2D	2G
=74	=74	=74
2GG	2BB	4r
.	.	2d
2G	2GG	.
.	.	4B
=75	=75	=75
2A	2FF	4.c
.	.	8d
2G	4C	4e
.	[4BB	[4d
=76	=76	=76
4F	4BB]	8d]
.	.	8c
4E	4C	2c
2D	2GG	.
.	.	4B
=77	=77	=77
1C	4G	2c
.	4.A	.
.	.	2r
.	8G	.
.	[4G	.
=78	=78	=78
2GG	4G]	4d
.	2E	4c
4C	.	4A
[4D	[4F	[4B
=79	=79	=79
4D]	8F]	8B]
.	8E	8A
4C	2E	2A
2BB	.	.
.	4D	4G
=80	=80	=80
1AA	2E	2A
.	2C	4G
.	.	4F
=81	=81	=81
4r	2AA	2E
4C	.	.
4D	2BB	4D
[4F	.	4r
=82	=82	=82
4F]	4AA	4A
4G	2GG	2B
2E	.	.
.	4AA	4c
=83	=83	=83
1D	4BB	2d
.	2GG	.
.	.	4B
.	4F	[4A
=84	=84	=84
4C	4E	4A]
4BB	4D	4G
2C	4.E	4A
.	.	4c
.	8F	.
*M3/4	*M3/4	*M3/4
=85	=85	=85
2GG	4G	4B
.	8F	4.A
.	4E	.
2BB	.	.
.	8D	8G
.	2D	4.G
2AA	.	.
.	.	8F#x
.	4C	8F#x
.	.	8E
=86	=86	=86
*M2/4	*M2/4	*M2/4
0GG	0D	0G
==	==	==
*-	*-	*-
!!!ENC: Mark Laxton
!!!EDD: Mark Laxton
!!!YEC: Mark Laxton, 1987
!!!EMD: Reference records added by D. Huron, 2001
!!!EEV: 1.1
